X: 890
T: Gördüm Seni Bir Gün
C: Sadettin Kaynak
O: Turkey
F: http://compmusic.upf.edu/node/140
N: ussak--sarki--nimsofyan--gordum_seni--sadettin_kaynak
N: makam= ussak
N: form= sarki
N: usul= nimsofyan = 2/4
M: 2/4
L: 1/16
K: C _2/4B   
Q: 1/4=66
%%MIDI tuningsystem comma53
.d8  | .c8  | B6BA  | c3/2B/.A2 z4  | zABc decB  | \
w:  ARANAĞME  |   |   |   |   | 
d4 z4  | g8  | ^f8  | 
w:   |   |   | 
_3/4e8  | ^3/4f3/2_2/4e/d2 z4  | zABc decB  | \
w:   |   |   | 
c4 z4  | zff.e e.dd.c  | 
w:   |   | 
z.ee.d d.cc.B  | z.dd.c c.BB.A  | z.cc.B B.AA.G  | 
w:   |   |   | 
.d2.c2 .B2.A2  | .B2.A2 .G2.^F2  | zABd c.BB.A  | \
w:   |   |   | 
A4 z4  | d8  | d3/2c/Bd cBA2  | 
w:   |  Gör  |  düm   | 
z2cd ec2B  | d4 z4  | zGAB cBd2  | z2AB c2d2  | \
w:  se ni  bir   |  gün   |  SAZ  |  ye ni  aç  | 
e2dc d2cB  | 
w:  mış   | 
c2BA B2c2  | d2cd cBBA  | A4 z4  | z.gg.^3/4f f._3/4ee.d  | 
w:   |  *  gü le  dön  |  düm    |  SAZ  | 
d.cc.B B.AA.G  | zABd c.BBA  | A4 z4  | d8  | \
w:   |   |   |  Gör  | 
d3/2c/Bd cBA2  | 
w:  düm   | 
z2cd ec2B  | d4 z4  | zGAB cBd2  | z2AB c2d2  | \
w:  se ni  bir   |  gün   |  SAZ  |  ye ni  aç  | 
e2dc d2cB  | 
w:  mış   | 
c2BA B2c2  | d2de dcBc  | d4 z4  | z.gg.^3/4f f._3/4ee.d  | 
w:   |  *  gü le  dön  |  düm    |  SAZ  | 
d.cc.B B.AA.G  | zgg^f f_3/4eed  | d3f egf2  | 
w:   |   |   | 
f8  | e3d _7/8eded  | c2Bc d4  | e3/2d/cB d3/2{d}c/BA  | \
w:  Coş  |  tum   |  *  şa kı yıp   |   | 
g^3/4f_3/4ed cBc2  | 
w:   | 
z2c4cB  | _3/4BA_7/8BA G^FG2  | z2A2 BAcd  | \
w:  aşk_ o  |  ku *  *  *  yan   |  bül *  *  bü  | 
d3/2c/Bc cBA2  | 
w:  le  *  *  *  dön  | 
A2A4z2  | z.gg^3/4f edef  | g3a g^3/4fed  | \
w:  *  düm    |  SAZ  |   | 
zc'2b2a2g  | 
w:   | 
g4 z4  | .g4 g3^3/4f  | e2^3/4f2 g2z2  | \
w:   |  Bak_ ay  |  rı lı ğın   | 
g3^2/4f gffe  | e3d e^2/4fga  | 
w:  ay *  rı *  lı  |  ğın   | 
zc'ba b3/2a/g^3/4f  | g4 z4  | g4 ^3/4f2g2  | a8  | \
w:  ay *  *  rı *  lı  |  ğın   |  şim di  ka  |  ran  | 
._1/4e4 e2ed  | d_2/4ede d^3/4fed  | 
w:  lık  ku ca  |  ğın  | 
d4 z4  | z.gg.^3/4f f._3/4ee.d  | d.cc.B B.AA.G  | \
w:  da    |  SAZ  |   | 
zgg^f f_3/4eed  | 
w:   | 
d3f egf2  | f8  | e3d _7/8eded  | c2Bc d4  | \
w:   |  Coş  |  tum   |  *  şa kı yıp   | 
e3/2d/cB d3/2{d}c/BA  | 
w:   | 
g^3/4f_3/4ed cBc2  | z2c4cB  | _3/4BA_7/8BA G^FG2  | \
w:   |  aşk_ o  |  ku *  *  *  yan   | 
z2A2 BAcd  | 
w:  bül *  *  bü  | 
d3/2c/Bc cBA2  | A2A4z2  | |


